X:935
T:West Kilbride
S:Kerr's Merry Melodies
Z:Nigel Gatherer
M:4/4
L:1/8
K:A
aA A/A/A AcBA | GABc defg | aA A/A/A AcBA | dBGB A2 A2 :|
a2 ae f2 fe | a2 ae f2 fe | agfe dcBA | dBGB A2 A2 :|
<end>
<start>
